src/svg/ue933-shapes.svg

<!-- Generated by IcoMoon.io -->
<svg version="1.1" xmlns="http://www.w3.org/2000/svg" width="32" height="32" viewBox="0 0 32 32">
<path d="M10.773 14.791l6.727 11.65h-13.454l6.727-11.65zM10.773 10.119l-10.773 18.658h21.545l-10.773-18.658z"></path>
<path d="M24.631 13.538c3.097 0 5.618 2.519 5.618 5.618s-2.519 5.618-5.618 5.618-5.618-2.521-5.618-5.618 2.521-5.618 5.618-5.618zM24.631 11.787c-4.069 0-7.369 3.298-7.369 7.369s3.301 7.369 7.369 7.369c4.071 0 7.369-3.298 7.369-7.369s-3.298-7.369-7.369-7.369v0z"></path>
<path d="M20.411 4.391v16.937h-16.935v-16.937h16.935zM21.579 3.223h-19.271v19.273h19.271v-19.273z"></path>
</svg>

<svg xmlns="http://www.w3.org/2000/svg" width="32" height="32"><path d="M10.773 14.791l6.727 11.65H4.046l6.727-11.65zm0-4.672L0 28.777h21.545L10.772 10.119zm13.858 3.419c3.097 0 5.618 2.519 5.618 5.618s-2.519 5.618-5.618 5.618-5.618-2.521-5.618-5.618 2.521-5.618 5.618-5.618zm0-1.751a7.369 7.369 0 1 0 0 14.738c4.071 0 7.369-3.298 7.369-7.369s-3.298-7.369-7.369-7.369z"/><path d="M20.411 4.391v16.937H3.476V4.391h16.935zm1.168-1.168H2.308v19.273h19.271V3.223z"/></svg>
